svg/system/history_anticlockwise_fill.svg

<?xml version="1.0" encoding="UTF-8"?>
<svg width="24px" height="24px" viewBox="0 0 24 24" version="1.1" xmlns="http://www.w3.org/2000/svg" xmlns:xlink="http://www.w3.org/1999/xlink">
    <title>history_anticlockwise_fill</title>
    <g id="Icon" stroke="none" stroke-width="1" fill="none" fill-rule="evenodd">
        <g id="System" transform="translate(-144.000000, -528.000000)" fill-rule="nonzero">
            <g id="history_anticlockwise_fill" transform="translate(144.000000, 528.000000)">
                <path d="M24,0 L24,24 L0,24 L0,0 L24,0 Z M12.5935,23.2578 L12.5819,23.2595 L12.5109,23.295 L12.4919,23.2987 L12.4767,23.295 L12.4057,23.2595 C12.3958,23.2564 12.387,23.259 12.3821,23.2649 L12.378,23.2758 L12.3609,23.7031 L12.3659,23.7235 L12.3769,23.7357 L12.4805,23.8097 L12.4953,23.8136 L12.5071,23.8097 L12.6107,23.7357 L12.6233,23.7197 L12.6267,23.7031 L12.6096,23.2758 C12.6076,23.2657 12.601,23.2593 12.5935,23.2578 Z M12.8584,23.1453 L12.8445,23.1473 L12.6598,23.2397 L12.6499,23.2499 L12.6472,23.2611 L12.6651,23.6906 L12.6699,23.7034 L12.6784,23.7105 L12.8793,23.8032 C12.8914,23.8069 12.9022,23.803 12.9078,23.7952 L12.9118,23.7812 L12.8777,23.1665 C12.8753,23.1546 12.8674,23.147 12.8584,23.1453 Z M12.143,23.1473 C12.1332,23.1424 12.1222,23.1453 12.1156,23.1526 L12.1099,23.1665 L12.0758,23.7812 C12.0751,23.7927 12.0828,23.8019 12.0926,23.8046 L12.1083,23.8032 L12.3092,23.7105 L12.3186,23.7024 L12.3225,23.6906 L12.3404,23.2611 L12.3372,23.2485 L12.3278,23.2397 L12.143,23.1473 Z" id="MingCute"></path>
                <path d="M21.093,6.75029 C23.9925,11.7724 22.2718,18.1941 17.2497,21.0936 C13.0673,23.5082 7.91799,22.7179 4.63728,19.4898 C4.04679,18.9087 4.03912,17.959 4.62016,17.3685 C5.2012,16.778 6.15091,16.7704 6.74141,17.3514 C9.08563,19.6581 12.7655,20.2184 15.7497,18.4955 C19.3369,16.4244 20.566,11.8375 18.4949,8.25029 C16.4238,4.66309 11.8369,3.43403 8.24971,5.5051 C6.40077,6.57258 5.177,8.30938 4.71025,10.2345 L5.2278,10.0995 C6.75043,9.7021 7.87181,11.5108 6.83884,12.6979 L4.58748,15.2852 C3.76195,16.2339 2.16517,15.9109 1.83438,14.6392 C1.71917,14.1963 1.63406,13.7495 1.5783,13.3015 C1.07307,9.24276 2.97988,5.08354 6.74971,2.90702 C11.7718,0.00752676 18.1935,1.72821 21.093,6.75029 Z M12,5.50012 C12.7796706,5.50012 13.4204457,6.09500554 13.4931332,6.85565954 L13.5,7.00012 L13.5,11.3788 L15.5607,13.4395 C16.1464,14.0252 16.1464,14.975 15.5607,15.5608 C15.0115125,16.1099875 14.1424031,16.1443117 13.5532254,15.6637727 L13.4393,15.5608 L10.9393,13.0608 C10.6931625,12.8146625 10.5414266,12.4917328 10.5073385,12.1483514 L10.5,12.0001 L10.5,7.00012 C10.5,6.17169 11.1716,5.50012 12,5.50012 Z" id="形状" fill="#09244B"></path>
            </g>
        </g>
    </g>
</svg>

<svg xmlns="http://www.w3.org/2000/svg" width="24" height="24"><g fill="none" fill-rule="nonzero"><path d="M24 0v24H0V0h24ZM12.594 23.258l-.012.002-.071.035-.02.004-.014-.004-.071-.036c-.01-.003-.019 0-.024.006l-.004.01-.017.428.005.02.01.013.104.074.015.004.012-.004.104-.074.012-.016.004-.017-.017-.427c-.002-.01-.009-.017-.016-.018Zm.264-.113-.014.002-.184.093-.01.01-.003.011.018.43.005.012.008.008.201.092c.012.004.023 0 .029-.008l.004-.014-.034-.614c-.003-.012-.01-.02-.02-.022Zm-.715.002a.023.023 0 0 0-.027.006l-.006.014-.034.614c0 .012.007.02.017.024l.015-.002.201-.093.01-.008.003-.011.018-.43-.003-.012-.01-.01-.184-.092Z"/><path fill="#09244B" d="M21.093 6.75c2.9 5.022 1.179 11.444-3.843 14.344-4.183 2.414-9.332 1.624-12.613-1.604a1.5 1.5 0 0 1 2.104-2.139 7.5 7.5 0 1 0-2.031-7.117l.518-.134c1.522-.398 2.644 1.41 1.61 2.598l-2.25 2.587c-.826.949-2.423.626-2.754-.646A10.503 10.503 0 0 1 6.75 2.907c5.023-2.9 11.445-1.179 14.344 3.843ZM12 5.5a1.5 1.5 0 0 1 1.493 1.356L13.5 7v4.379l2.06 2.06a1.5 1.5 0 0 1-2.007 2.225l-.114-.103-2.5-2.5a1.5 1.5 0 0 1-.432-.913L10.5 12V7A1.5 1.5 0 0 1 12 5.5Z"/></g></svg>
